crypto/fuel.svg

<svg fill="none" height="32" viewBox="0 0 32 32" width="32" xmlns="http://www.w3.org/2000/svg"><path d="m16 32c8.8366 0 16-7.1634 16-16 0-8.83656-7.1634-16-16-16-8.83656 0-16 7.16344-16 16 0 8.8366 7.16344 16 16 16z" fill="#368ccb"/><path d="m19 10-2.1053 5.3333h-6.5614v-3h6.5914l.9177-2.3333h-9.84242v5h-1.66667l-1 2.3333h2.66667v5.3334h4.86112l.9176-2.3334h-3.4454v-3h5.772l-2.1053 5.3334h3l2.3333-5.3334h7v-7.3333zm5 5.3333h-4l1.3333-3h2.6667z" fill="#fff"/></svg>

<svg width="32" height="32" fill="none" xmlns="http://www.w3.org/2000/svg"><path d="M16 32c8.837 0 16-7.163 16-16S24.837 0 16 0 0 7.163 0 16s7.163 16 16 16Z" fill="#368CCB"/><path d="m19 10-2.105 5.333h-6.562v-3h6.592L17.842 10H8v5H6.333l-1 2.333H8v5.334h4.861l.918-2.334h-3.446v-3h5.772L14 22.667h3l2.333-5.334h7V10H19Zm5 5.333h-4l1.333-3H24v3Z" fill="#fff"/></svg>
